storage/app/icons/phosphoricons/duotone/image-square-duotone.svg

<svg xmlns="http://www.w3.org/2000/svg" fill="currentColor" viewBox="0 0 256 256"><path d="M208 40H48a8 8 0 0 0-8 8v160a8 8 0 0 0 8 8h8.69l109.65-109.66a8 8 0 0 1 11.32 0L216 144.69V48a8 8 0 0 0-8-8M96 112a16 16 0 1 1 16-16 16 16 0 0 1-16 16" opacity=".2"/><path d="M208 32H48a16 16 0 0 0-16 16v160a16 16 0 0 0 16 16h160a16 16 0 0 0 16-16V48a16 16 0 0 0-16-16M48 48h160v77.38l-24.69-24.7a16 16 0 0 0-22.62 0L53.37 208H48Zm160 160H76l96-96 36 36zM96 120a24 24 0 1 0-24-24 24 24 0 0 0 24 24m0-32a8 8 0 1 1-8 8 8 8 0 0 1 8-8"/></svg>

<svg xmlns="http://www.w3.org/2000/svg" viewBox="0 0 256 256" fill="currentColor"><path d="M208,40H48a8,8,0,0,0-8,8V208a8,8,0,0,0,8,8h8.69L166.34,106.34a8,8,0,0,1,11.32,0L216,144.69V48A8,8,0,0,0,208,40ZM96,112a16,16,0,1,1,16-16A16,16,0,0,1,96,112Z" opacity="0.2"/><path d="M208,32H48A16,16,0,0,0,32,48V208a16,16,0,0,0,16,16H208a16,16,0,0,0,16-16V48A16,16,0,0,0,208,32ZM48,48H208v77.38l-24.69-24.7a16,16,0,0,0-22.62,0L53.37,208H48ZM208,208H76l96-96,36,36v60ZM96,120A24,24,0,1,0,72,96,24,24,0,0,0,96,120Zm0-32a8,8,0,1,1-8,8A8,8,0,0,1,96,88Z"/></svg>
